assets/img/braze_icons/recording-03.svg

<svg fill="none" height="24" viewBox="0 0 24 24" width="24" xmlns="http://www.w3.org/2000/svg"><path clip-rule="evenodd" d="m12 1c-6.07513 0-11 4.92487-11 11 0 6.0751 4.92487 11 11 11 6.0751 0 11-4.9249 11-11 0-6.07513-4.9249-11-11-11zm2 5c.5523 0 1 .44772 1 1v10c0 .5523-.4477 1-1 1s-1-.4477-1-1v-10c0-.55228.4477-1 1-1zm-3 3c0-.55228-.4477-1-1-1-.55229 0-1 .44772-1 1v6c0 .5523.44772 1 1 1 .5523 0 1-.4477 1-1zm-4 2c0-.5523-.44772-1-1-1s-1 .4477-1 1v2c0 .5523.44772 1 1 1s1-.4477 1-1zm12 0c0-.5523-.4477-1-1-1s-1 .4477-1 1v2c0 .5523.4477 1 1 1s1-.4477 1-1z" fill="#801ed7" fill-rule="evenodd"/></svg>

<svg width="24" height="24" viewBox="0 0 24 24" fill="none" xmlns="http://www.w3.org/2000/svg">
<path fill-rule="evenodd" clip-rule="evenodd" d="M12 1C5.92487 1 1 5.92487 1 12C1 18.0751 5.92487 23 12 23C18.0751 23 23 18.0751 23 12C23 5.92487 18.0751 1 12 1ZM14 6C14.5523 6 15 6.44772 15 7V17C15 17.5523 14.5523 18 14 18C13.4477 18 13 17.5523 13 17V7C13 6.44772 13.4477 6 14 6ZM11 9C11 8.44772 10.5523 8 10 8C9.44771 8 9 8.44772 9 9V15C9 15.5523 9.44772 16 10 16C10.5523 16 11 15.5523 11 15V9ZM7 11C7 10.4477 6.55228 10 6 10C5.44772 10 5 10.4477 5 11V13C5 13.5523 5.44772 14 6 14C6.55228 14 7 13.5523 7 13V11ZM19 11C19 10.4477 18.5523 10 18 10C17.4477 10 17 10.4477 17 11V13C17 13.5523 17.4477 14 18 14C18.5523 14 19 13.5523 19 13V11Z" fill="#801ED7"/>
</svg>
